X:503
T:Primrose Polka, The 
C:Joe Buchanan's Scottish Tome - Page 477.0
I:477 0
R:Polka
Z:Carl Allison
L:1/8
M:4/4
K:D
A2 | F>G^G>A B>A^G>A | f2 d2 f2 d2 | F>G^G>A B>A^G>A | E4- E4 |
E>FG>A B>A^G>A | e2 G2 c2 B2 | A>Bc>B A>GE>^E | F4- F3 A |
F>G^G>A B>A^G>A | f2 d2 f2 d2 | F>G^G>A B>A^G>A | E4- E4 |
E>FG>A B>A^G>A | e2 G2 c2 B2 | A>Bc>B A>GE>F | D4- D3 A |
F4 G^G A2 | e2 | d>AF>A d>ce>d | c2 B2 B4 |
E4 F^G A2 | c2 B2 | A>Bc>B A>GE>F | G2 F2 F3 A |
F4 G^G A2 | e2 | d>AF>A d>ce>d | c2 B2 B4 |
g>fe>f g2 g2 | f>ed>e f2 f2 | e>dc>d e>AB>c | d2 f2 d3 E |
f>ed>c d2 A2 | f>ed>c d2 A2 | B>^AB>c d2 B2 | A4- A4 |
G>FG>A B2 G2 | F>^EF>G A2 F2 | ^G>E^D>E F>EF>^G | A2 G2 F2 E2 |
f>ed>c d2 A2 | f>ed>c d2 A2 | B>^AB>c d2 e2 | f4 f4 |
g>dB>d g2 g2 | f>dA>d f2 f2 | c>A^G>A B2 c2 | d4- d4 |]

